Sources/FrostedUI/Resources/Icons.xcassets/paperAirplaneFilledUp32.imageset/paper-airplane-filled-up-32.svg

<svg width="32" height="32" viewBox="0 0 32 32" fill="none" xmlns="http://www.w3.org/2000/svg" data-fui-icon="true">
  <path
    d="M14.7493 0.763243L0.142925 30.0496C-0.385472 31.1124 0.637773 32.286 1.79521 31.9372L13.3864 27.9076C13.9274 27.7435 14.3132 27.2757 14.3593 26.7217L16.0032 12.9505L17.6471 26.7217C17.6933 27.2757 18.0791 27.7435 18.62 27.9076L30.207 31.9372C31.3645 32.286 32.3877 31.1165 31.8551 30.0496L17.2487 0.759144C16.9803 0.22159 16.5987 0 15.999 0C15.3993 0 15.0177 0.217487 14.7493 0.759144V0.763243Z"
    fill="currentColor"
  />
</svg>

<svg xmlns="http://www.w3.org/2000/svg" width="32" height="32" fill="none" data-fui-icon="true" viewBox="0 0 32 32"><path fill="currentColor" d="M14.75.763.142 30.05c-.528 1.062.495 2.236 1.652 1.887l11.591-4.03c.541-.163.927-.631.973-1.185l1.644-13.772 1.644 13.772c.046.554.432 1.021.973 1.186l11.587 4.03c1.157.348 2.18-.822 1.648-1.888L17.25.76c-.269-.538-.65-.76-1.25-.76s-.981.217-1.25.76z"/></svg>
